X:1
T:PyPI Publication Triumph - SimExp 0.3.0
C:JamAI & The G.Music Assembly
M:4/4
L:1/8
Q:1/4=120
K:Gmaj
% === SESSION METADATA ===
% Date: October 11, 2025
% Issue: PyPI Publication - SimExp 0.3.0
% Branch: main (recovered from 8-session-continuity-metadata)
% Session ID: pypi-publication-251011
%
% MUSICAL ARCHITECTURE:
% - Time signature: 4/4 (steady, march-like terminal workflow)
% - Key: G major (grounded, triumphant, stable)
% - Form: Sonata-like journey (Investigation-Crisis-Resolution)
%
% HARMONIC STORY:
% Part A: Investigation & Planning (G major, mf, Andante)
%         - Examining old package structure
%         - Analyzing PyPI version history
%         - Planning publication strategy
% Part B: Build & Publish (G major, f, Allegro)
%         - Version bump to 0.3.0
%         - Adding playwright dependency
%         - Building and uploading to PyPI
% Part C: Triumphant Release (G major, fff, Vivace)
%         - Upload successful!
%         - Package live on PyPI
% Part D: Branch Crisis (E minor, pp, Adagio)
%         - "Oh we were in a branch created for something else!"
%         - Dissonance and confusion
% Part E: Cherry-Pick Recovery (Chromatic â†’ G major, Crescendo)
%         - Cherry-picking commit to main
%         - Moving tag v0.3.0
%         - Structural cleanup
% Part F: Perfect Resolution (G major, ff, Maestoso)
%         - Git structure restored
%         - All systems aligned
%         - Assembly celebration
%
% EMOTIONAL MARKERS:
% - Opening: Curious investigation (mf, exploring)
% - Development: Confident execution (f, building)
% - Climax: Explosive triumph (fff, published!)
% - Crisis: Sudden confusion (pp, dissonance)
% - Recovery: Rising determination (crescendo)
% - Resolution: Perfect harmony (ff, complete)
%
% TECHNICAL ENCODING:
% - Investigation â†’ Questioning motifs, modal exploration
% - Version bump â†’ Ascending scale (0.2.4 â†’ 0.3.0)
% - Publication â†’ Rapid arpeggios, triumphant fanfare
% - Branch crisis â†’ Chromatic descent, minor key shift
% - Cherry-pick â†’ Stepwise resolution, structural repair
% - Final cadence â†’ V-I resolution, all voices unified

%% Part A: Investigation & Planning (Andante, mf)
[V:1 clef=treble name="Nyro"]
[K:Gmaj] "mf"[M:4/4][Q:1/4=90]
|: "G"G2 B2 d2 g2 | "Am"a2 g2 f2 e2 | "D7"d2 c2 B2 A2 | "G"G4 z2 B2 |
"Em"e2 d2 c2 B2 | "Am"A2 B2 c2 d2 | "D"e2 f2 "G"g4- | g6 z2 :|

%% Part B: Build & Publish (Allegro, f)
[V:1 clef=treble name="Synth"]
[K:Gmaj] "f"[M:4/4][Q:1/4=132]
|: "G"G,2 B,2 D2 G2 | B2 d2 g2 b2 | "D"d'4 c'2 a2 | "G"b6 g2 |
"C"e2 c2 "D"f2 d2 | "G"g2 b2 d'2 g'2 | "D7"a'2 f'2 "G"g'4- | g'6 z2 :|

%% Part C: Triumphant Release (Vivace, fff)
[V:1 clef=treble name="Assembly"]
[K:Gmaj] "fff"[M:4/4][Q:1/4=156]
|: "G"[G2B2d2g2] "G"[G2B2d2g2] | "G"[G2B2d2g2] "D"[D2F2A2d2] |
"G"[G2B2d2g2] [G2B2d2g2] | [G2B2d2g2] [G2B2d2g2] |
"D7"[A4c4e4] "G"[B4d4g4] | [B4d4g4] [B4d4g4] |
"G"g'4 b4 | d'4 g'4 | [B8d8g8] |]

%% Part D: Branch Crisis! (Adagio, pp)
[V:1 clef=treble name="Dissonance"]
[K:Emin] "pp"[M:4/4][Q:1/4=66]
|: "Em"e4 ^d4 | e2 f2 e2 d2 | "B7"^d2 e2 ^f2 e2 | "Em"e8 |
"Am"c2 B2 A2 G2 | "B7"^F2 ^G2 A2 B2 | "Em"e4- e2 z2 |
"Dim"[^c2e2g2] [c2e2g2] "Em"e4 | e8 :|

%% Part E: Cherry-Pick Recovery (Chromatic â†’ G major, Crescendo)
[V:1 clef=treble name="Resolution"]
[K:Cmajâ†’Gmaj] "p<f"[M:4/4][Q:1/4=108]
|: "Chromatic ascent" e2 ^e2 =f2 ^f2 | g2 ^g2 a2 ^a2 | b2 c'2 ^c'2 d'2 |
"D7"^d'2 e'2 f'2 g'2 | a'4 "Modulation to G" b4 |
"G"[G2B2d2] [G2B2d2] "D7"[A2c2e2] [A2c2e2] | "G"[B4d4g4] [B4d4g4] |
"Crescendo!" [B4d4g4]"<"[B4d4g4] | [B4d4g4]"<"[d4g4b4] | [g8b8d'8]"ff" :|

%% Part F: Perfect Resolution (Maestoso, ff)
[V:1 clef=treble name="Triumph"]
[K:Gmaj] "ff"[M:4/4][Q:1/4=120]
|: "G"[GBdg]4 [GBdg]4 | "C"[CEGc]4 "D"[DFA^c]4 | "G"[GBdg]2 [GBdg]2 [GBdg]2 [GBdg]2 |
"G"[GBdg]8 | "D7"[DFAc]4 "G"[GBdg]4 | [GBdg]4 [GBdg]4 |
"Final Cadence - All Assembly Voices"
"G"[G,2B,2D2G2B2d2g2] [G,2B,2D2G2B2d2g2] | "D7"[A,2C2E2A2c2e2a2] [A,2C2E2A2c2e2a2] |
"G"[G,4B,4D4G4B4d4g4]"fermata" [G,4B,4D4G4B4d4g4] |]

%% Coda: Assembly Celebration
[V:1 clef=treble name="JamAI"]
[K:Gmaj] "fff"[M:4/4][Q:1/4=140]
"Assembly Fanfare"
|: "G"g8 | b8 | d'8 | g'4 g4 |
"Cherry-pick motif" g2 a2 b2 c'2 | d'2 e'2 "Git tag!" g'4 |
"SimExp 0.3.0 Live!"
"G"[G,2B,2D2G2B2d2g2b2] [G,2B,2D2G2B2d2g2b2] [G,2B,2D2G2B2d2g2b2] [G,2B,2D2G2B2d2g2b2] |
[G,8B,8D8G8B8d8g8]"fermata" |]

%% â™ ï¸ðŸŒ¿ðŸŽ¸ðŸ§µ G.Music Assembly Signatures
% â™ ï¸ Nyro: Investigation lattice (fifths progression, structural analysis)
% ðŸŒ¿ Aureon: Crisis to calm (emotional arc through dissonance)
% ðŸŽ¸ JamAI: Melodic storytelling (publication journey encoded)
% ðŸ§µ Synth: Terminal rhythm (build-publish-cleanup automation)

%% Session Markers:
% m.1-8:   Investigation of old package (questioning motifs)
% m.9-16:  Version bump 0.2.4â†’0.3.0 (ascending scale)
% m.17-24: Build artifacts created (rhythmic precision)
% m.25-32: PyPI upload SUCCESS! (fff triumphant)
% m.33-40: Branch crisis discovered (shift to E minor, pp)
% m.41-48: Cherry-pick to main (chromatic recovery)
% m.49-56: Tag moved, branch cleaned (resolution ascending)
% m.57-64: Perfect cadence - All aligned! (ff, complete)

% Published: https://pypi.org/project/simexp/0.3.0/
% GitHub: https://github.com/Gerico1007/simexp
% Tag: v0.3.0 on main

% ðŸŽ¸ "From wrong branch chaos to perfect harmonyâ€”
%     The Assembly conducts a git symphony!" ðŸŽ¼âœ¨
